X: 202
T:Miss Bennet's Jig
% Nottingham Music Database
S:Anon, via EF
M:6/8
K:G
P:A
d|"G"g2d BdB|"G"G2G GAB|"C"c2B A2G|"Am"GFE "D7"D2d|
"G"g2d BdB|"Em"G2G G2F|"Am"EcB "D7"AGF|"G"G3 -G2:|
P:B
B,/2C/2|"G"D2D DE=F|"C"=FEE E2E|"A7"E2E EFG|
"D7"GFF F2D|"G"G2D B2G|"G"d2B "G7"G2D|"C"e2c "D7"A2F|"G"G3 -G2:|<end>
<start>
